world_stage/static/flags/LUX/square.svg

<svg height="800" viewBox="0 0 799.99997 800" width="800" xmlns="http://www.w3.org/2000/svg"><g transform="matrix(.88987764 0 0 -1.3333311 0 799.99869)"><path d="m0 0h899v300h-899z" fill="#00a1de"/><path d="m0 300h899v300.001h-899z" fill="#ed2939"/><path d="m0 200h899v200h-899z" fill="#fff"/></g></svg>

<?xml version="1.0" encoding="UTF-8" standalone="no"?>
<svg
   height="800"
   viewBox="0 0 799.99997 800"
   width="800"
   version="1.1"
   id="svg3"
   sodipodi:docname="rect copy.svg"
   inkscape:version="1.4 (e7c3feb1, 2024-10-09)"
   xmlns:inkscape="http://www.inkscape.org/namespaces/inkscape"
   xmlns:sodipodi="http://sodipodi.sourceforge.net/DTD/sodipodi-0.dtd"
   xmlns="http://www.w3.org/2000/svg"
   xmlns:svg="http://www.w3.org/2000/svg">
  <defs
     id="defs3" />
  <sodipodi:namedview
     id="namedview3"
     pagecolor="#ffffff"
     bordercolor="#000000"
     borderopacity="0.25"
     inkscape:showpageshadow="2"
     inkscape:pageopacity="0.0"
     inkscape:pagecheckerboard="0"
     inkscape:deskcolor="#d1d1d1"
     inkscape:current-layer="svg3" />
  <g
     transform="matrix(0.88987764,0,0,-1.3333311,0,799.99869)"
     id="g3">
    <path
       d="M 0,0 H 899 V 300 H 0 Z"
       fill="#00a1de"
       id="path1" />
    <path
       d="M 0,300 H 899 V 600.001 H 0 Z"
       fill="#ed2939"
       id="path2" />
    <path
       d="M 0,200 H 899 V 400 H 0 Z"
       fill="#ffffff"
       id="path3" />
  </g>
</svg>
